Obsidian-SemiLight/actions/22s/view-task-child.svg

<svg viewBox="0 0 22 22" xmlns="http://www.w3.org/2000/svg"><path d="m3 3v16h9v-1h-8v-11h14v5h1v-9h-2v3h-2v-3h-8v3h-2v-3zm11.292969 6-4.5917971 4.591797-1.1464844-1.146485-.7070313.707032 1.8457032 1.847656.0058594-.007812.0078124.007812 5.2929688-5.2929688zm-1.292969 4v1 5h6v-5-1h-1v1h-1v-1h-2v1h-1v-1zm1 2h4v3h-4z" fill="#4d4d4d"/></svg>

<svg xmlns="http://www.w3.org/2000/svg" viewBox="0 0 22 22">
  <defs id="defs3051">
    <style type="text/css" id="current-color-scheme">
      .ColorScheme-Text {
        color:#4d4d4d;
      }
      </style>
  </defs>
 <path 
    style="fill:currentColor;fill-opacity:1;stroke:none" 
    d="M 3 3 L 3 19 L 12 19 L 12 18 L 4 18 L 4 7 L 18 7 L 18 12 L 19 12 L 19 3 L 17 3 L 17 6 L 15 6 L 15 3 L 7 3 L 7 6 L 5 6 L 5 3 L 3 3 z M 14.292969 9 L 9.7011719 13.591797 L 8.5546875 12.445312 L 7.8476562 13.152344 L 9.6933594 15 L 9.6992188 14.992188 L 9.7070312 15 L 15 9.7070312 L 14.292969 9 z M 13 13 L 13 14 L 13 19 L 19 19 L 19 14 L 19 13 L 18 13 L 18 14 L 17 14 L 17 13 L 15 13 L 15 14 L 14 14 L 14 13 L 13 13 z M 14 15 L 18 15 L 18 18 L 14 18 L 14 15 z "
	class="ColorScheme-Text"
    />  
</svg>
